X: 7314
T: Cleveland Park
R: jig
M: 6/8
K: Aminor
|:EAB cBA|FAB cBA|^FAB cBA|B/c/dB GAB|
EAB cBA|FAB cBA|B/c/dB GAB|BAG A3:|
Ace aec|def ecA|FAc EAc|cBA ^GAB|
Ace aec|def ecA|FAc EAc|BA^G A3|
Ace aec|def ecA|FAc EAc|cBA ^GAB|
EAB cBA|FAB cBA|B/c/dB GAB|BA^G A3||

